X: 1
N: Lady Auckland's Reel
N: 8 x 32S 2C (RSCDS Bk 18)
P: Lady Auckland's Reel
C: Robert Mackintosh
C: Arr. T. Traub 2-22-98
M: 4/4
L: 1/8
K: Bb
|: F|"Bb"D>B,D>F B>dB>F|"Bb"D>FB>d "F"c<CC>F|"Bb"D>B,D>F B>FB>d|"Bb"f>B"F"e>c "Bb"d<B B:|
g|"Bb"f>Bd>B B>f d<f|"Cm"g>ce>c "F"A>g e<g|"Bb"f>Bd>B B>f d<f|"F"c>BA>G "Bb"Fg|
"Bb"f>Bd>B B>f d<f|"Cm"g>ce>c "F"A>g e<g|"Bb"f>d"F"e>c "Bb"d>B"F"c>A|"F"F>fc>A d<B B |]
